status/24/bluetooth-paired-symbolic.svg

<?xml version="1.0" encoding="UTF-8" standalone="no"?>
<svg
   xmlns:dc="http://purl.org/dc/elements/1.1/"
   xmlns:cc="http://creativecommons.org/ns#"
   xmlns:rdf="http://www.w3.org/1999/02/22-rdf-syntax-ns#"
   xmlns:svg="http://www.w3.org/2000/svg"
   xmlns="http://www.w3.org/2000/svg"
   id="svg6995"
   height="24"
   width="24"
   version="1.1">
  <defs
     id="defs6997" />
  <metadata
     id="metadata7000">
    <rdf:RDF>
      <cc:Work
         rdf:about="">
        <dc:format>image/svg+xml</dc:format>
        <dc:type
           rdf:resource="http://purl.org/dc/dcmitype/StillImage" />
        <dc:title />
      </cc:Work>
    </rdf:RDF>
  </metadata>
  <path
     id="rect6885"
     d="M 11.509766 5 C 11.232766 5 11.009766 5.223 11.009766 5.5 L 11.009766 10.375 L 9.2910156 8.875 C 8.9781356 8.60155 8.5331656 8.65588 8.2597656 8.96875 C 7.9863656 9.28163 8.0093856 9.75784 8.3222656 10.03125 L 10.572266 12 L 8.3222656 13.96875 C 8.0093856 14.242151 7.9863656 14.718372 8.2597656 15.03125 C 8.5331656 15.344128 8.9781356 15.398401 9.2910156 15.125 L 11.009766 13.625 L 11.009766 18.5 C 11.009766 18.777 11.232766 19 11.509766 19 C 11.792186 19 11.947266 18.98047 12.166016 18.8125 L 15.697266 15.65625 C 15.809576 15.55634 15.878716 15.41553 15.916016 15.28125 C 15.930216 15.22993 15.944366 15.1779 15.947266 15.125 C 15.951266 15.083 15.950266 15.042 15.947266 15 C 15.941266 14.94639 15.933616 14.89545 15.916016 14.84375 C 15.877516 14.70979 15.810456 14.56765 15.697266 14.46875 L 12.884766 12 L 15.697266 9.53125 C 15.810456 9.432343 15.877546 9.2902007 15.916016 9.15625 C 15.933616 9.104503 15.941466 9.053605 15.947266 9 C 15.950266 8.958011 15.951266 8.916991 15.947266 8.875 C 15.944266 8.822087 15.930216 8.7700625 15.916016 8.71875 C 15.878716 8.5844641 15.809576 8.4436547 15.697266 8.34375 L 12.166016 5.1875 C 11.966726 5.0265176 11.738566 5 11.509766 5 z M 12.009766 7.0625 L 14.103516 8.9375 L 12.009766 10.75 L 12.009766 7.0625 z M 12.009766 13.25 L 14.103516 15.0625 L 12.009766 16.9375 L 12.009766 13.25 z M 20.058594 18 A 2.0000001 2.0000001 0 0 0 18 20 A 2.0000001 2.0000001 0 1 0 22 20 A 2.0000001 2.0000001 0 0 0 20.058594 18 z "
     style="color:#bebebe;display:inline;overflow:visible;visibility:visible;fill:#bebebe;fill-opacity:1;fill-rule:nonzero;stroke:none;stroke-width:1.82310748;marker:none;enable-background:accumulate" />
</svg>

<svg xmlns="http://www.w3.org/2000/svg" height="24" width="24"><path d="M11.51 5a.5.5 0 0 0-.5.5v4.875l-1.72-1.5c-.312-.273-.757-.22-1.03.094a.753.753 0 0 0 .062 1.06l2.25 1.97-2.25 1.97a.753.753 0 0 0-.062 1.06c.273.313.718.367 1.03.094l1.72-1.5V18.5a.5.5 0 0 0 .5.5c.282 0 .437-.02.656-.188l3.53-3.156a.78.78 0 0 0 .22-.375.745.745 0 0 0 .03-.28.723.723 0 0 0-.03-.155.78.78 0 0 0-.22-.375L12.886 12l2.81-2.47a.78.78 0 0 0 .22-.374.71.71 0 0 0 0-.437.78.78 0 0 0-.22-.377l-3.53-3.156c-.2-.16-.426-.188-.655-.188zm.5 2.063l2.094 1.875-2.094 1.812V7.062zm0 6.187l2.094 1.813-2.094 1.874V13.25zM20.06 18A2 2 0 0 0 18 20a2 2 0 1 0 4 0 2 2 0 0 0-1.94-2z" color="#bebebe" overflow="visible" fill="#bebebe"/></svg>
